!!!!SEGMENT: 009-1b-Sm-001.krn
!!!COM: Chopin, Fryderyk
!!!OTL: Nocturne No. 1
!!!OPS: Op. 9
!!!PTL: Trois Nocturnes
!!!PPR: M. Schlesinger
!!!PPP: Paris
!!!NIFC-rismID: 1001019586
!!!NIFC-shelfmark: PL-Wbfc 1662/n
!!!OMD: Metr: M: [quarter] = 116
!!!OMD: Larghetto.
**kern	**fing	**kern	**fing	**dynam
*part1	*	*part1	*	*part1
*staff2	*	*staff1	*	*
*clefF4	*	*clefG2	*	*
*k[b-e-a-d-g-]	*	*k[b-e-a-d-g-]	*	*
*b-:	*	*b-:	*	*
*M6/4	*	*M6/4	*	*
*MM116	*	*MM116	*	*
!	!	!LO:TX:t=espr&colon;	!	!
4r	.	(8bb-L	.	p
.	.	8ccc	.	.
4r	.	8ddd-	.	.
.	.	8aan	.	.
4r	.	8bb-	.	.
.	.	8gg-J	.	.
=1	=1	=1	=1	=1
*ped	*	*	*	*
(8BB-L	.	4ff'	.	<
8F	.	.	.	.
8d-	.	4ff'	.	.
8B-	.	.	.	.
8f	.	4ff'	.	.
*Xped	*	*	*	*
8FJ)	.	.	.	.
*ped	*	*	*	*
(8BB-L	.	4ff)	.	[
8F	.	.	.	.
8e-	.	(8gg-L	.	>
8An	.	8ff	.	.
8f	.	8ee-	.	.
*Xped	*	*	*	*
8FJ)	.	8ccJ)	.	]
=2	=2	=2	=2	=2
(8BB-L	.	(2dd-	.	>
8F	.	.	.	.
8d-	.	.	.	]
8B-	.	.	.	.
8f	.	4b-)	.	.
8FJ)	.	.	.	.
!	!	!LO:TX:a:t=P:note-head-side tuplet number:problem	!	!
(8BB-L	.	(44%3bb-L	.	.
.	.	44%3ccc	.	.
8F	.	.	.	.
.	.	44%3ddd-	.	.
.	.	44%3aan	.	.
8d-	.	.	.	.
.	.	44%3bb-	.	.
.	.	44%3aa	.	.
8B-	.	.	.	.
.	.	44%3gg#X	.	.
.	.	44%3aa	.	.
8f	.	.	.	.
.	.	44%3ccc	.	.
.	.	44%3bb-	.	.
8FJ)	.	.	.	.
.	.	44%3gg-XJ)	.	.
!!LO:LB:g=original
=3	=3	=3	=3	=3
!	!	!LO:TX:a:t=P:note-head-side tuplet number:problem	!	!
(8BB-L	.	(44%3ffL	.	.
.	.	44%3gg-X	.	.
8F	.	.	.	.
.	.	44%3een	.	.
.	.	44%3ff	.	.
8d-	.	.	.	.
.	.	44%3bb-	.	.
.	.	44%3aan'	.	.
8B-	.	.	.	.
.	.	44%3aa-'	.	.
.	.	44%3ggn'	.	.
8f	.	.	.	.
.	.	44%3gg-'	.	.
.	.	44%3ff'	.	.
8FJ)	.	.	.	.
.	.	44%3ee'	.	.
(8BB-L	.	44%3ee-'	.	.
.	.	44%3ddn'	.	.
8F	.	.	.	.
.	.	44%3dd-'	.	.
.	.	44%3cc'	.	.
8e-	.	.	.	.
.	.	44%3dd-	.	.
.	.	44%3cc	.	.
8An	.	.	.	.
.	.	44%3bn	.	.
.	.	44%3cc	.	.
8f	.	.	.	.
.	.	44%3ff	.	.
.	.	44%3een	.	.
8FJ)	.	.	.	.
.	.	44%3ee-J)	.	.
=4	=4	=4	=4	=4
8BB-L	.	(2dd-	.	>
8F	.	.	.	]
8d-	.	.	.	.
8B-	.	.	.	.
8f	.	4b-)	.	.
8FJ	.	.	.	.
8BB-L	.	(4bb-'	.	<
8F	.	.	.	.
8d-	.	4bb-'	.	.
8B-	.	.	.	.
8f	.	4bb-')	.	.
8FJ	.	.	.	.
=5	=5	=5	=5	=5
*	*	*^	*	*
(8DD-L	.	[1aa-	2.ryy	.	[fz
8F	.	.	.	.	p
8d-	.	.	.	.	.
8A-	.	.	.	.	.
8f	.	.	.	.	.
8FJ)	.	.	.	.	.
(8GG-XL	.	.	4dd-	.	>
8D-	.	.	.	.	]
8B-	.	4.aa-]	8b-L	.	.
8G-	.	.	8cc	.	<
8d-	.	.	8dd-	.	.
8D-J)	.	8ryy	8gg-J	.	[
*	*	*v	*v	*	*
!!LO:LB:g=original
=6	=6	=6	=6	=6
(8DD-L	.	2.ff^	.	[
8D-	.	.	.	.
8A-	.	.	.	.
8F	.	.	.	.
8d-	.	.	.	.
8D-J)	.	.	.	.
(8GG-L	.	(4ee-	.	.
8D-	.	.	.	.
8B--	.	8ffL	.	>
8G-	.	8ee-	.	.
8d-	.	8dd-	.	]
8D-J)	.	8b--J	.	.
=7	=7	=7	=7	=7
(8DD-L	.	2a-\)	.	.
8D-	.	.	.	.
8A-	.	.	.	.
8F	.	.	.	.
8d-	.	(4dd-	.	.
!LO:TX:a:t=smorz.	!	!	!	!
8D-J)	.	.	.	.
(8GG-L	.	4ee-	.	.
8D-	.	.	.	.
8B--	.	8ffL	.	.
8G-	.	8ee-	.	.
8e-	.	8dd-	.	.
8CJ)	.	8ee-J	.	.
=8	=8	=8	=8	=8
(8FFL	.	2.ff)	.	.
8C	.	.	.	.
8An	.	.	.	.
8F	.	.	.	.
8e-	.	.	.	.
8AJ)	.	.	.	.
(8BB-L	.	(8bb-L	.	p
8F	.	8ccc	.	>
8d-	.	8ddd-	.	.
8B-	.	8aan	.	.
.	.	8qqccc/	.	.
8f	.	8bb-	.	.
8FJ)	.	8gg-J)	.	]
=9	=9	=9	=9	=9
8BB-L	.	(4ff'	.	<
8F	.	.	.	.
8d-	.	4ff'	.	.
8B-	.	.	.	.
8f	.	4ff')	.	[
8FJ	.	.	.	.
8BB-L	.	(4ff	.	.
8F	.	.	.	.
8e-	.	8gg-L	.	>
8An	.	8ff	.	]
8f	.	8ee-	.	.
8FJ	.	8ccJ)	.	.
!!LO:LB:g=original
=10	=10	=10	=10	=10
(8BB-L	.	(2dd-	.	]
8F	.	.	.	.
8d-	.	.	.	.
8B-	.	.	.	.
8f	.	4b-)	.	.
8FJ)	.	.	.	.
!	!	!LO:TX:a:t=P:note-head-side tuplet number:problem	!	!
8BB-L	.	(44%3bb-L	.	.
.	.	44%3ccc	.	.
8F	.	.	.	.
.	.	44%3ddd-	.	.
.	.	44%3aan	.	.
8d-	.	.	.	.
.	.	44%3bb-	.	.
.	.	44%3aa	.	<
8B-	.	.	.	.
.	.	44%3gg#X	.	.
.	.	44%3aa	.	.
8f	.	.	.	.
.	.	44%3ccc	.	.
.	.	44%3bb-	.	.
8FJ	.	.	.	.
.	.	44%3gg-XJ)	.	[
=11	=11	=11	=11	=11
*	*	*Xtuplet	*	*
(8BB-L	.	12ff`L	.	.
*	*	*8va	*	*
.	.	(12ffff	.	.
8F	.	.	.	.
.	.	12eeeenJ	.	>
8d-	.	12eeee-XL	.	.
.	.	12dddd-	.	.
8B-	.	.	.	.
!	!	!LO:TX:t=legatiss.	!	!
.	.	12ccccJ	.	.
8f	.	12bbb-L	.	.
.	.	12ggg-	.	.
8FJ)	.	.	.	.
.	.	12fffJ	.	.
8BB-L	.	12eeenL	.	.
.	.	12eee-X	.	.
8F	.	.	.	.
.	.	12ddd-J	.	.
8e-	.	12cccL	.	.
.	.	12bb-	.	.
8An	.	.	.	]
.	.	12aanJ	.	.
*	*	*X8va	*	*
!	!	!LO:TX:a:t=loco.	!	!
8f	.	12gg-L	.	>
.	.	12ff	.	]
8FJ	.	.	.	.
.	.	12ccJ)	.	.
*	*	*tuplet	*	*
=12	=12	=12	=12	=12
8BB-L	.	(2dd-	.	>
8F	.	.	.	.
8d-	.	.	.	.
8B-	.	.	.	.
8f	.	4b-)	.	]
8FJ	.	.	.	.
8BB-L	.	(4bb-'	.	<
8F	.	.	.	.
8d-	.	4bb-'	.	.
8B-	.	.	.	.
8f	.	4bb-')	.	[
8FJ	.	.	.	.
!!LO:LB:g=original
=13	=13	=13	=13	=13
(8BB-L	.	(2bb-	.	>
8F	.	.	.	.
8dn	.	.	.	]
8B-	.	.	.	.
8a-	.	4ddn)	.	.
8B-J)	.	.	.	.
(8E-L	.	(4ee-T	.	.
8G-	.	.	.	.
8e-	.	8ddnXL	.	.
8B-	.	8ee-	.	.
8g-	.	8.gg-	.	>
8e-J)	.	.	.	.
.	.	16ffJk)	.	]
=14	=14	=14	=14	=14
8CL	.	(2ff	.	>
8Gn	.	.	.	.
8en	.	.	.	.
8c	.	.	.	]
8b-	.	4een)	.	.
8cJ	.	.	.	.
.	.	8qff/L	.	.
.	.	8qgg-/J	.	.
!	!	!LO:TX:a:t=P:note-head-side tuplet number:problem	!	!
8FL	.	(28%3ffL	.	.
.	.	28%3ee	.	.
8c	.	.	.	.
.	.	28%3ff	.	<
*clefG2	*	*	*	*
8an	.	.	.	.
.	.	28%3ggn	.	.
8e-X	.	.	.	.
.	.	28%3aan'	.	.
8cc	.	.	.	.
.	.	28%3bb-'	.	.
8aJ	.	.	.	.
.	.	28%3ccc'J	.	[
*clefF4	*	*	*	*
=15	=15	=15	=15	=15
*^	*	*	*	*
!	!	!	!LO:TX:b:t=appassionato.	!	!
2.ryy	(8BB-L	.	2ddd-	.	f
.	8F	.	.	.	.
.	8d-	.	.	.	.
.	8B-	.	.	.	.
!	!	!	!LO:TX:a:t=P:note-head-side tuplet number:problem	!	!
.	8E-	.	(12bb-L	.	.
.	.	.	12gg-	.	.
.	8g-J)	.	.	.	.
.	.	.	12b-J)	.	.
8ryy	(8FFL	.	2dd-^)	.	.
2F	8F	.	.	.	.
.	8B-	.	.	.	.
.	8f	.	.	.	.
.	8e-	.	4cc	.	.
8ryy	8AnJ)	.	.	.	.
=16	=16	=16	=16	=16	=16
*	*	*	*	*	*^
.	.	.	8qb-/	.	.	.
2.ryy	(8BB-L	.	(4.fff	.	>	<
.	8F	.	.	.	.	.
.	8d-	.	.	.	.	.
.	8B-	.	8ddd-)	.	]	.
*	*	*	*	*	*v	*v
!	!	!	!LO:TX:a:t=P:note-head-side tuplet number:problem	!	!
.	8E-	.	(12bb-L	.	.
.	.	.	12gg-	.	.
.	8g-J)	.	.	.	.
.	.	.	12b-J)	.	.
8ryy	(8FFL	.	2dd-^	.	.
2F	8F	.	.	.	.
.	8B-	.	.	.	.
.	8f	.	.	.	.
.	8e-	.	4cc	.	.
8ryy	8AnJ)	.	.	.	.
!!LO:LB:g=original
=17	=17	=17	=17	=17	=17
.	.	.	8qb-/	.	.
*	*	*	*8va	*	*
!	!	!	!LO:TX:b:t=con forza.	!	!
(8GG-\L	4ryy	.	[4dddd-	.	.
8D-	.	.	.	.	.
*	*	*	*Xtuplet	*	*
8G-	2ryy	.	12dddd-L]	.	.
.	.	.	12bbb-'	.	.
8B-	.	.	.	.	.
.	.	.	12ggg-'J	.	.
*	*	*	*X8va	*	*
!	!	!	!LO:TX:a:t=loco.	!	!
8f-X	.	.	12ddd-'L	.	.
.	.	.	12bb-'	.	.
8G-J)	.	.	.	.	.
.	.	.	12b-'J	.	.
*	*	*	*tuplet	*	*
(8E-\L	2ryy	.	(2cc-X^<	.	.
8G-	.	.	.	.	.
8c-X	.	.	.	.	.
8e-)	.	.	.	.	p
8F-y	4F-y/	.	4an\	.	.
8e-J	.	.	.	.	.
*v	*v	*	*	*	*
=18	=18	=18	=18	=18
!	!	!	!	!LO:HP:b=2
(8BB-L	.	2.b-)	.	<
8F	.	.	.	.
8d-	.	.	.	.
8B-	.	.	.	.
8f	.	.	.	[
!LO:TX:b:t=smorz.	!	!	!	!
8d-J	.	.	.	.
8B-L\	.	4r	.	.
8F	.	.	.	.
8D-	.	4r	.	.
8BB-	.	.	.	.
8FF	.	4r	.	.
8EE-J)	.	.	.	.
=19	=19	=19	=19	=19
!	!	!LO:TX:a:t=sotto voce.	!	!
(8DD-\L	.	(2.ff 2.f	.	pp
*ped	*	*	*	*
8AA-	.	.	.	.
8D-	.	.	.	.
8A-	.	.	.	.
8D-	.	.	.	.
*Xped	*	*	*	*
8AA-J)	.	.	.	.
8DD-\L	.	2.ff-X 2.f-X	.	.
*ped	*	*	*	*
8AA-	.	.	.	.
8D-	.	.	.	.
8A--	.	.	.	.
8D-	.	.	.	.
*Xped	*	*	*	*
8AA--yJ	.	.	.	.
=20	=20	=20	=20	=20
(8DD-\L	.	8ee-L 8e-	.	.
8AA-	.	8ffnJ 8fny	.	.
8C	.	4ee-\ 4e-\	.	.
8G-	.	.	.	.
8C	.	4cc\) 4c	.	.
8AA-J)	.	.	.	.
(8DD-\L	.	4b- (4B-	.	.
8AA-	.	.	.	.
!	!	!	!	!LO:HP:a
8C	.	2a- 2A-	.	<[
8G-	.	.	.	.
8C	.	.	.	.
8AA-J)	.	.	.	.
!!LO:PB:g=original
=21	=21	=21	=21	=21
!	!	!LO:TX:a:t=P:brak zakończenia łuku:problem	!	!
(8DD-\L	.	4b- 4B-)	.	.
8AA-	.	.	.	.
8C	.	2cc^> 2c	.	.
8G-	.	.	.	.
8C	.	.	.	.
8AA-J)	.	.	.	.
(8DD-\L	.	4dd- 4d-	.	<
8AA-	.	.	.	.
8C	.	2ee-^> 2e-	.	.
8G-	.	.	.	[
8C	.	.	.	.
8AA-J)	.	.	.	.
=22	=22	=22	=22	=22
(8DD-\L	.	(8ffL 8f	.	.
8AA-	.	8gg-J 8g-	.	.
8E-	.	4bb- 4b-	.	.
8A-	.	.	.	.
8C	.	4aa- 4a-	.	.
8AA-J)	.	.	.	.
(8DD-\L	.	2.ff) 2.f	.	.
8AA-	.	.	.	.
8D-	.	.	.	.
8A-	.	.	.	.
8D-	.	.	.	.
8AA-J)	.	.	.	.
=23	=23	=23	=23	=23
(8DD-\L	.	2.ff 2.f	.	.
8AA-	.	.	.	.
!LO:TX:a:t=poco rall&colon;	!	!	!	!
8D-	.	.	.	.
8A-	.	.	.	.
8D-	.	.	.	.
8AA-J)	.	.	.	.
(8CC#X\L	.	2.een\ 2.en\	.	.
8AAn	.	.	.	.
8C#X	.	.	.	.
8Gn	.	.	.	.
8C#	.	.	.	.
8AAJ)	.	.	.	.
=24	=24	=24	=24	=24
(8DDn\L	.	8ddnL (8dn	.	ppp
8AAn	.	8eenJ 8en	.	.
8Dny	.	4dd 4d	.	.
8F#X	.	.	.	.
8Dny	.	4an 4An	.	.
8AAJ)	.	.	.	.
!	!	!LO:N:vis=2	!	!
(8DD\L	.	2.bn 2.Bn)	.	<
8GGn	.	.	.	[
8Dny	.	.	.	.
8Gny	.	.	.	.
8Dny	.	.	.	.
8GGnyJ)	.	.	.	.
!!LO:LB:g=original
=25	=25	=25	=25	=25
(8DDn\L	.	8ddnL (8dn	.	.
8AAn	.	8eenJ 8en	.	.
8Dny	.	4dd 4d	.	.
8F#X	.	.	.	.
8Dny	.	4an 4An)	.	.
8AAJ)	.	.	.	.
!	!	!LO:TX:a:t=P:2B- bez kropki:problem	!	!
(8GGnL	.	2.b-X 2.B-X	.	f
!LO:TX:a:t=a Tempo.	!	!	!	!
8C#X	.	.	.	.
8En	.	.	.	.
8B-	.	.	.	.
8E	.	.	.	.
8C#J)	.	.	.	.
=26	=26	=26	=26	=26
(8AA-L	.	2.cc 2.c	.	<
8E-	.	.	.	.
8G-	.	.	.	.
8B--	.	.	.	.
8A-	.	.	.	.
8AA-J)	.	.	.	.
(8DD-\L	.	2.dd- 2.d-	.	.
8AA-	.	.	.	.
8D-	.	.	.	.
8A-	.	.	.	.
8D-	.	.	.	.
8AA-J)	.	.	.	.
=27	=27	=27	=27	=27
(8DD-\L	.	(2.ff 2.f	.	p
8AA-	.	.	.	.
8D-	.	.	.	.
8A-	.	.	.	.
8D-	.	.	.	.
8AA-J)	.	.	.	.
(8DD-\L	.	2.ff-X 2.f-X	.	.
8AA-	.	.	.	.
8D-	.	.	.	.
8A--	.	.	.	.
8D-	.	.	.	.
8AA--yJ)	.	.	.	.
=28	=28	=28	=28	=28
(8DD-\L	.	8ee-L 8e-	.	.
8AA-	.	8ffnJ 8fn	.	.
8C	.	4ee-\ 4e-\	.	.
8G-	.	.	.	.
8C	.	4cc\) 4c\	.	.
8AA-J)	.	.	.	.
(8DD-\L	.	4b- 4B-	.	.
8AA-	.	.	.	.
8C	.	2a-^> 2A-	.	.
8G-	.	.	.	.
8C	.	.	.	.
8AA-J)	.	.	.	.
!!LO:LB:g=original
=29	=29	=29	=29	=29
(8DD-\L	.	4b- (4B-	.	.
8AA-	.	.	.	.
8C	.	2cc 2c	.	.
8G-	.	.	.	.
8C	.	.	.	.
8AA-J)	.	.	.	.
(8DD-\L	.	4dd- 4d-	.	.
8AA-	.	.	.	.
8C	.	2ee-^ 2e-)	.	.
8G-	.	.	.	.
8C	.	.	.	.
8AA-J)	.	.	.	.
=30	=30	=30	=30	=30
(8DD-\L	.	(8ffL 8f	.	.
8AA-	.	8gg-J 8g-	.	.
8E-	.	4bb- 4b-	.	.
8A-	.	.	.	.
8C	.	4aa-) 4a-	.	.
8AA-J)	.	.	.	.
.	.	8qaa- 8qa-/	.	.
(8DD-\L	.	2.ff 2.f	.	.
8AA-	.	.	.	.
8D-	.	.	.	.
8A-	.	.	.	.
8D-	.	.	.	.
8AA-J)	.	.	.	.
=31	=31	=31	=31	=31
(8DD-\L	.	2.ff 2.f	.	.
8AA-	.	.	.	.
8D-	.	.	.	.
8A-	.	.	.	.
8D-	.	.	.	.
8AA-J)	.	.	.	.
(8CC#X\L	.	2.een\ 2.en\	.	.
8AAn	.	.	.	.
8C#X	.	.	.	.
8Gn	.	.	.	.
8C#	.	.	.	.
8AAJ)	.	.	.	.
=32	=32	=32	=32	=32
(8DDn\L	.	8ddnL (8dn	.	.
8AAn	.	8eenJ 8en	.	.
8Dny	.	4dd 4d	.	.
8F#X	.	.	.	.
8Dny	.	4an 4An)	.	.
8AAJ)	.	.	.	.
(8DD\L	.	2.bn 2.Bn	.	<
8GGn	.	.	.	[
8Dny	.	.	.	.
8Gny	.	.	.	.
8Dny	.	.	.	.
8GGJ)	.	.	.	.
!!LO:LB:g=original
=33	=33	=33	=33	=33
(8DDn\L	.	8ddnL (8dn	.	[
8AAn	.	8eenJ 8en	.	.
8Dny	.	4dd 4d	.	.
8F#X	.	.	.	.
8Dny	.	4an 4An)	.	.
8AAJ)	.	.	.	.
(8GGnL	.	2.b-y 2.B-y	.	.
8C#X	.	.	.	.
8En	.	.	.	.
8B-	.	.	.	.
8E	.	.	.	.
8C#J)	.	.	.	.
=34	=34	=34	=34	=34
(8AA-L	.	2.cc 2.c	.	.
8E-	.	.	.	.
8G-	.	.	.	.
8B--	.	.	.	.
8A-	.	.	.	.
8AA-J)	.	.	.	.
(8DD-\L	.	2.dd- 2.d-	.	.
8AA-	.	.	.	.
8D-	.	.	.	.
8A-	.	.	.	.
8D-	.	.	.	.
8BB-XJ)	.	.	.	.
=35	=35	=35	=35	=35
(8AA-L	.	(2.ee-\ 2.e-\	.	.
8E-	.	.	.	.
8A-	.	.	.	.
8c	.	.	.	.
!LO:TX:a:t=poco stretto.	!	!	!	!
8A-	.	.	.	.
8E-J)	.	.	.	f
(8AA-L	.	2.ff 2.f	.	.
8Dn	.	.	.	.
8F	.	.	.	.
8B-	.	.	.	.
8F	.	.	.	.
8DJ)	.	.	.	.
=36	=36	=36	=36	=36
(8GG-\L	.	4gg- 4g-	.	<
8BB-	.	.	.	.
8E-	.	8ffL 8f	.	.
8B-	.	8gg- 8g-	.	.
8E-	.	8aa- 8a-	.	.
8BB-J)	.	8bb-J 8b-	.	[
(8GG-L	.	4bb-^< 4b-	.	.
8C	.	.	.	.
8E-	.	4ee-\) 4e-\	.	.
8A-	.	.	.	>
8E-	.	[4aa- [>4a-	.	.
8CJ)	.	.	.	]
!!LO:LB:g=original
=37	=37	=37	=37	=37
8FF\L	.	(4aa-] 4a-]	.	.
8AA-	.	.	.	.
8D-	.	8bb-L 8b-	.	>
8A-	.	8aa- 8a-	.	.
8D-	.	8gg- 8g-	.	]
8AA-J	.	8ffJ) 8f	.	.
(8DD-\L	.	4ff 4f	.	.
8AA-	.	.	.	.
8D-	.	8gg-L 8g-	.	>
8A-	.	8ff 8f	.	.
8D-	.	8ee- 8e-	.	]
8AA-J)	.	8dd-J 8d-	.	.
=38	=38	=38	=38	=38
(8DD-\L	.	[1ee- [1e-	.	fz
8BB-	.	.	.	p
8E-	.	.	.	.
8Gn	.	.	.	.
8E-	.	.	.	.
8BB-J)	.	.	.	.
(8DD-\L	.	.	.	.
8AAn	.	.	.	.
8C	.	4ee-\] 4e-\]	.	<
8G-X	.	.	.	.
8C	.	4een\ 4en\	.	[
8AA-XJ)	.	.	.	.
=39	=39	=39	=39	=39
(8DD-\L	.	2.ff 2.f	.	.
!	!	!LO:TX:t=poco-rall::dur=10e:ext=ud:problem:text with extention lines	!	!
8AA-	.	.	.	.
8D-	.	.	.	.
8A-	.	.	.	.
8D-	.	.	.	.
8AA-J)	.	.	.	.
(8CC#X\L	.	2.een\ 2.en\	.	.
8AAn	.	.	.	.
8C#X	.	.	.	.
8Gn	.	.	.	.
8C#	.	.	.	.
8AAJ)	.	.	.	.
=40	=40	=40	=40	=40
(8DDn\L	.	8ddnL (8dn	.	.
8AAn	.	8eenJ 8eny	.	.
8Dny	.	4dd 4d	.	.
8F#X	.	.	.	.
8Dny	.	4an 4An)	.	.
8AAJ)	.	.	.	.
(8DD\L	.	2.bn 2.Bn	.	.
8GGn	.	.	.	.
8Dny	.	.	.	.
8Gny	.	.	.	.
8Dny	.	.	.	.
8GGJ)	.	.	.	.
!!LO:LB:g=original
=41	=41	=41	=41	=41
(8DDn\L	.	8ddnL (8dn	.	.
8AAn	.	8eenJ 8en	.	.
8Dny	.	4dd 4d	.	.
8F#X	.	.	.	.
8Dny	.	4an 4An)	.	.
8AAJ)	.	.	.	.
(8GGnL	.	2.b-X (2.B-X	.	f
!	!	!LO:TX:b:t=a Tempo.	!	!
8C#X	.	.	.	.
8En	.	.	.	.
8B-	.	.	.	.
8E	.	.	.	.
8C#J)	.	.	.	.
=42	=42	=42	=42	=42
(8AA-L	.	2.cc 2.c	.	.
8E-	.	.	.	.
8G-X	.	.	.	.
8B--	.	.	.	.
8A-	.	.	.	.
8AA-J)	.	.	.	.
(8DD-\L	.	2.dd- 2.d-)	.	.
8AA-	.	.	.	.
8D-	.	.	.	.
8A-	.	.	.	.
8D-	.	.	.	.
8BB-XJ)	.	.	.	.
=43	=43	=43	=43	=43
(8AA-L	.	2.ee-\ 2.e-\	.	.
8E-	.	.	.	.
8A-	.	.	.	.
8c	.	.	.	.
8A-	.	.	.	.
8E-J)	.	.	.	.
(8AA-L	.	2.ff 2.f	.	.
8Dn	.	.	.	.
8F	.	.	.	.
8B-	.	.	.	.
8F	.	.	.	.
8DJ)	.	.	.	.
!!LO:PB:g=original
=44	=44	=44	=44	=44
(8GG-\L	.	(4gg- 4g-	.	.
8BB-	.	.	.	.
8E-	.	8ffL 8f	.	<
8B-	.	8gg- 8g-	.	.
8E-	.	8aa- 8a-	.	.
8BB-J)	.	8bb-J 8b-	.	[
(8GG-L	.	4bb- 4b-	.	>
8C	.	.	.	.
8E-	.	4ee-\) 4e-\	.	]
8A-	.	.	.	.
8E-	.	[4aa- [>4a-	.	>
8CJ)	.	.	.	.
=45	=45	=45	=45	=45
(8FF\L	.	(>4aa-] 4a-]	.	]
8AA-	.	.	.	.
8D-	.	8bb-L 8b-	.	>
8A-	.	8aa- 8a-	.	.
8D-	.	8gg- 8g-	.	]
8AA-J)	.	8ffJ) 8f	.	.
(8DD-\L	.	(4ff 4f	.	.
8AA-	.	.	.	.
8D-	.	8gg-L 8g-	.	>
8A-	.	8ff 8f	.	.
8D-	.	8ee- 8e-	.	]
8AA-J)	.	8dd-J) 8d-	.	.
=46	=46	=46	=46	=46
(8DD-\L	.	[1ee- [1e-	.	fz
8BB-	.	.	.	p
8E-	.	.	.	.
8Gn	.	.	.	.
8E-	.	.	.	.
8BB-J)	.	.	.	.
(8DD-\L	.	.	.	.
8AAn	.	.	.	.
8C	.	4ee-] 4e-]	.	<
8G-X	.	.	.	.
8C	.	4een (4en	.	.
8AA-XJ)	.	.	.	[
=47	=47	=47	=47	=47
(8DD-\L	.	2.ff/ 2.f/	.	.
!LO:TX:a:t=poco rall&colon;	!	!	!	!
8AA-	.	.	.	.
8D-	.	.	.	.
8A-	.	.	.	.
8D-	.	.	.	.
8AA-J)	.	.	.	.
(8CC#X\L	.	2.een 2.en)	.	.
8AAn	.	.	.	.
8C#y	.	.	.	.
8Gn	.	.	.	.
8C#y	.	.	.	.
8AAJ)	.	.	.	.
!!LO:LB:g=original
=48	=48	=48	=48	=48
(8DDn\L	.	8ddnL (8dn	.	.
8AAn	.	8eenJ 8en	.	.
8Dny	.	4dd 4d	.	.
8F#X	.	.	.	.
8Dny	.	4an 4An)	.	.
8AAJ)	.	.	.	.
(8DD\L	.	2.bn 2.Bn	.	.
8GGn	.	.	.	.
8Dny	.	.	.	.
8Gn	.	.	.	.
8Dny	.	.	.	.
8GGJ)	.	.	.	.
=49	=49	=49	=49	=49
(8DDn\L	.	8ddnL 8dn	.	.
8AA-	.	8eenJ 8en	.	.
8Dny	.	4dd 4d	.	.
8F#X	.	.	.	.
8Dny	.	4an 4An	.	.
8AA-J)	.	.	.	f
(8GGn\L	.	2.b-X 2.B-X	.	.
!LO:TX:a:t=a Tempo.	!	!	!	!
8C#X	.	.	.	.
8En	.	.	.	.
8B-	.	.	.	.
8E	.	.	.	.
8C#J)	.	.	.	.
=50	=50	=50	=50	=50
(8AA-L	.	2.cc 2.c	.	.
8E-	.	.	.	.
8G-	.	.	.	.
8B--	.	.	.	.
8A-	.	.	.	.
8AA-J)	.	.	.	.
(8DD-\L	.	2.dd- 2.d-	.	.
8AA-	.	.	.	.
8D-	.	.	.	.
8A-	.	.	.	.
8D-	.	.	.	.
8AA-J)	.	.	.	.
=51	=51	=51	=51	=51
*	*	*^	*	*
*ped	*	*	*	*	*
(8DD-\L	.	2ff^	2.cc-X 2.f	.	ff
8AA-	.	.	.	.	.
8D-	.	.	.	.	.
8A-	.	.	.	.	.
8D-	.	8ee-L	.	.	.
8AA-J)	.	8ffJ	.	.	.
(8DD-\L	.	2ee- 2cc-	2.cc- 2.f	.	.
8AA-	.	.	.	.	.
8D-	.	.	.	.	.
8A-	.	.	.	.	.
8D-	.	4dd-	.	.	.
8AA-J)	.	.	.	.	.
*	*	*v	*v	*	*
!!LO:LB:g=original
=52	=52	=52	=52	=52
(8DD-\L	.	(4.aa- 4.cc-X	.	.
8AA-	.	.	.	.
8D-	.	.	.	.
8A-	.	8bb-L 8dd-	.	.
8D-	.	8aa- 8cc-	.	.
8AA-J)	.	8bb-J 8dd-	.	.
(8DD-\L	.	4.aa-) 4.cc-	.	.
8AA-	.	.	.	.
8D-	.	.	.	.
8A-	.	4r	.	.
8D-	.	.	.	.
8AA-J)	.	8r	.	.
=53	=53	=53	=53	=53
*	*	*^	*	*
(8DD-\L	.	2ff	1cc-X 1f	.	.
8AA-	.	.	.	.	.
8D-	.	.	.	.	.
8A-	.	.	.	.	.
8D-	.	8ee-L	.	.	.
8AA-J)	.	8ffJ	.	.	.
(8DD-\L	.	2ee-^	.	.	.
8AA-	.	.	.	.	.
8D-	.	.	2cc- 2f	.	.
8A-	.	.	.	.	.
8D-	.	4dd-	.	.	.
8AA-J)	.	.	.	.	.
*	*	*v	*v	*	*
=54	=54	=54	=54	=54
(8DD-\L	.	(8aa-L 8cc-X	.	.
8AA-	.	8bb- 8dd-	.	.
8D-	.	8aa- 8cc-	.	.
8A-	.	8bb- 8dd-	.	.
8D-	.	8aa- 8cc-	.	.
8AA-J)	.	8bb-J 8dd-	.	.
(8DD-\L	.	2.aa-) 2.cc-	.	.
8AA-	.	.	.	.
8D-	.	.	.	.
8A-	.	.	.	.
8D-	.	.	.	.
8AA-J)	.	.	.	.
=55	=55	=55	=55	=55
!	!	!LO:TX:b:t=con forza.	!	!
(8DD-\L	.	4.fff 4.ddd-	.	>
8AA-	.	.	.	.
8D-	.	.	.	.
8A-	.	(8eee-L 8ccc-X	.	.
8D-	.	8ccc- 8aa-	.	]
8AA-J)	.	8aa-J 8ff	.	.
(8DD-\L	.	2ff) 2cc-X	.	.
8AA-	.	.	.	.
8D-	.	.	.	.
8A-	.	.	.	.
8D-	.	(>4gg- 4ee- 4cc-	.	.
8AA-J)	.	.	.	.
!!LO:LB:g=original
=56	=56	=56	=56	=56
*	*	*^	*	*
!	!	!LO:TX:b:t=P:1.cc- na środku taktu:problem	!	!	!
8DD-\L	.	2.bb- 2.gg-	1.cc-X	.	.
8AA-	.	.	.	.	.
8D-	.	.	.	.	.
8A-	.	.	.	.	.
8D-	.	.	.	.	.
8AA-J	.	.	.	.	.
8DD-\L	.	2.aa-) 2.ff	.	.	.
8AA-	.	.	.	.	.
8D-	.	.	.	.	.
8A-	.	.	.	.	.
8D-	.	.	.	.	.
8AA-J	.	.	.	.	.
=57	=57	=57	=57	=57	=57
!LO:TX:b:t=sempre	!	!	!	!	!
8DD-\L	.	4.ff/ 4.dd-/	2.ryy	.	>
8AA-	.	.	.	.	.
8D-	.	.	.	.	]
8A-	.	8ee-/L 8cc-X/	.	.	pp
*ped	*	*	*	*	*
8D-	.	8cc- 8a-	.	.	.
8AA-J	.	8a-J 8f	.	.	.
8DD-\L	.	2f/ 2c-X/	2ryy	.	.
8AA-	.	.	.	.	.
8D-	.	.	.	.	.
8A-	.	.	.	.	.
8D-	.	(4g-	[4c- 4e-	.	.
8AA-J	.	.	.	.	.
=58	=58	=58	=58	=58	=58
!	!	!LO:TX:a:t=P:1.c- na środku taktu:problem	!	!	!
(8DD-\L	.	2.b-^< 2.g-	1.c-X]	.	.
8AA-	.	.	.	.	.
8D-	.	.	.	.	.
8A-	.	.	.	.	.
8D-	.	.	.	.	.
8AA-J)	.	.	.	.	.
(8D-L	.	2.a-) 2.f	.	.	.
8A-	.	.	.	.	.
8d-	.	.	.	.	.
8A-	.	.	.	.	.
8D-	.	.	.	.	.
8AA-J)	.	.	.	.	.
*	*	*v	*v	*	*
=59	=59	=59	=59	=59
(8D-L	.	1.r	.	.
8A-	.	.	.	.
8d-	.	.	.	.
8A-	.	.	.	.
8D-	.	.	.	.
8AA-J)	.	.	.	.
(8D-L	.	.	.	.
8A-	.	.	.	.
8d-	.	.	.	.
8A-	.	.	.	.
8D-	.	.	.	.
8AA-J)	.	.	.	.
!!LO:LB:g=original
=60	=60	=60	=60	=60
8D-L	.	1.r	.	.
8A-	.	.	.	.
8d-	.	.	.	.
8A-	.	.	.	.
8D-	.	.	.	.
8AA-J	.	.	.	.
8D-L	.	.	.	.
8A-	.	.	.	.
8d-	.	.	.	.
8A-	.	.	.	ppp
8D-	.	.	.	.
8AA-J	.	.	.	.
=61	=61	=61	=61	=61
8D-L	.	(2ff^ 2dd-	.	.
!LO:TX:a:t=legatiss.	!	!	!	!
8A-	.	.	.	.
8d-	.	.	.	.
8A-	.	.	.	.
8D-	.	8dd-L 8a-	.	.
8AA-J	.	8ffJ) 8dd-	.	.
8D-L	.	(2ee- 2a-	.	.
8A-	.	.	.	.
8d-	.	.	.	.
8A-	.	.	.	.
8D-	.	4dd-\) 4f\	.	.
8AA-J	.	.	.	.
=62	=62	=62	=62	=62
8D-L	.	(4.aa- 4.ff	.	.
8A-	.	.	.	.
8d-	.	.	.	.
8A-	.	8bb-L 8gg-	.	.
8D-	.	8aa- 8ff	.	.
8AA-J	.	8bb-J) 8gg-	.	.
8D-L	.	4.aa- 4.ff	.	.
8A-	.	.	.	.
8d-	.	.	.	.
8A-	.	4r	.	.
8D-	.	.	.	.
8AA-J	.	8r	.	.
=63	=63	=63	=63	=63
8D-L	.	(2ff 2dd-	.	.
8A-	.	.	.	.
8d-	.	.	.	.
8A-	.	.	.	.
8D-	.	8ee-L 8a-	.	.
8AA-J	.	8ffJ) 8dd-	.	.
8D-L	.	(2ee- 2a-	.	.
8A-	.	.	.	.
8d-	.	.	.	.
8A-	.	.	.	.
8D-	.	4dd-\) 4f\	.	.
8AA-J	.	.	.	.
!!LO:LB:g=original
=64	=64	=64	=64	=64
(8D-L	.	(8aa-L 8ff	.	.
8A-	.	8bb- 8gg-	.	.
8d-	.	8aa- 8ff	.	.
8A-	.	8bb- 8gg-	.	.
8D-	.	8aa- 8ff	.	.
8AA-J)	.	8bb-J 8gg-	.	.
(8D-L	.	2.aa-) 2.ff	.	.
8A-	.	.	.	.
8d-	.	.	.	.
8A-	.	.	.	.
8D-	.	.	.	.
8AA-J)	.	.	.	.
=65	=65	=65	=65	=65
!	!	!LO:TX:t=sempre-pianissimo:dur=9e:ext=ud:problem:text with extention lines	!	!
(8D-L	.	(4.fff 4.ddd-	.	.
8A-	.	.	.	.
8d-	.	.	.	.
8A-	.	8eee-L 8aa-	.	.
8D-	.	8ddd- 8ff	.	.
8AA-J)	.	8aa-J) 8ff	.	.
(8D-L	.	(2ff 2dd-	.	.
8A-	.	.	.	.
8d-	.	.	.	.
8A-	.	.	.	.
8D-	.	4gg- 4ee-	.	.
8AA-J)	.	.	.	.
=66	=66	=66	=66	=66
(8D-L	.	2.bb- 2.gg-	.	.
8A-	.	.	.	.
8d-	.	.	.	.
8A-	.	.	.	.
8D-	.	.	.	.
8AA-J)	.	.	.	.
(8D-L	.	2.aa-) 2.ff	.	.
8A-	.	.	.	.
8d-	.	.	.	.
8A-	.	.	.	.
8D-	.	.	.	.
8AA-J)	.	.	.	.
=67	=67	=67	=67	=67
*	*	*	*	*^
!	!	!	!	!	!LO:DY:b=2
!LO:TX:b:t=sempre. 	!	!	!	!	!
8D-L	.	[1.ff^ [>1.dd-	.	fz	.
*	*	*	*	*v	*v
8A-	.	.	.	.
8d-	.	.	.	.
8A-	.	.	.	.
!	!	!	!	!LO:DY:b=2
8D-	.	.	.	p
(8AAnJ	.	.	.	.
8D-L	.	.	.	.
8An	.	.	.	.
8d-)	.	.	.	.
8A	.	.	.	.
8D-	.	.	.	.
8AA-XJ	.	.	.	.
!!LO:PB:g=original
=68	=68	=68	=68	=68
(8D-L	.	1.ff_ 1.dd-_>	.	.
8A-	.	.	.	.
!LO:TX:a:t=smorz.	!	!	!	!
8d-)	.	.	.	.
8A-	.	.	.	.
8D-	.	.	.	.
(8GG-J	.	.	.	.
8D-L	.	.	.	.
8G-	.	.	.	.
8d-)	.	.	.	.
8G-	.	.	.	.
8D-	.	.	.	.
(8AA-J	.	.	.	.
=69	=69	=69	=69	=69
8D-L	.	1.ff] 1.dd-]	.	.
8A-	.	.	.	.
8d-)	.	.	.	.
8A-	.	.	.	.
8D-	.	.	.	.
(8AAnJ	.	.	.	.
8D-L	.	.	.	.
8An	.	.	.	.
8d-)	.	.	.	.
8A	.	.	.	.
8D-	.	.	.	.
8AAnJ	.	.	.	.
=70	=70	=70	=70	=70
*^	*	*	*	*
2ryy	8D-L	.	2r	.	.
.	8An	.	.	.	.
.	8d-	.	.	.	.
.	8A	.	.	.	.
!LO:TX:a:t=rall&colon; e dolciss&colon;	!	!	!	!	!
8ryy	8D-	.	4ryy	.	.
*rscale:2	*	*	*	*	*
8BB-	8BB-J	.	.	.	.
8D-	(>8D-L	.	(8bb-L	.	.
*rscale:1	*	*	*	*	*
4F	8F	.	8ccc	.	.
.	8d-	.	8ddd-	.	.
4.ryy	8B-	.	8aan^<	.	.
.	8f	.	8bb-^<	.	.
.	8FJ)	.	8gg-J)	.	.
*v	*v	*	*	*	*
!!LO:LB:g=original
=71	=71	=71	=71	=71
!	!	!LO:TX:b:t=a Tempo.	!	!
8BB-L	.	(4ff	.	.
8F	.	.	.	.
8d-	.	4ff	.	.
8B-	.	.	.	.
8f	.	4ff)	.	.
8FJ	.	.	.	.
8BB-L	.	(4ff	.	.
8F	.	.	.	.
8e-	.	8gg-L	.	.
8An	.	8ff	.	.
8f	.	8ee-	.	.
8FJ	.	8ccJ	.	.
=72	=72	=72	=72	=72
8BB-L	.	2dd-	.	.
8F	.	.	.	.
8d-	.	.	.	.
8B-	.	.	.	.
8f	.	4b-)	.	.
8FJ	.	.	.	.
8BB-L	.	8bb-L	.	.
8F	.	8ccc	.	.
8d-	.	8ddd-	.	.
8B-	.	8aan	.	.
!	!	!LO:TX:a:t=P:note-head-side tuplet number:problem	!	!
!	!	!LO:TX:a:t=P:triola bez ramki:problem	!	!
8f	.	(12ccc	.	.
.	.	12bb-	.	.
8FJ	.	.	.	.
.	.	12gg-J)	.	.
=73	=73	=73	=73	=73
*	*	*Xtuplet	*	*
*	*	*rscale:2	*	*
8BB-L	.	(24ffL	.	.
.	.	24gg-	.	.
.	.	24eenJ	.	.
8F	.	24ffL)	.	.
*	*	*8va	*	*
!	!	!LO:TX:b:t=legatiss&colon;	!	!
.	.	24ffff	.	.
.	.	24eeeenJ	.	.
8d-	.	24eeee-XL	.	.
.	.	24dddd-	.	.
.	.	24ccccJ	.	.
*	*	*rscale:1	*	*
*	*	*tuplet	*	*
!	!	!LO:TX:a:t=P:note-head-side tuplet number:problem	!	!
*	*	*rscale:2	*	*
8B-	.	160%9bbb-L	.	.
.	.	160%9aaan	.	.
.	.	160%9ggg-	.	.
8f	.	.	.	.
.	.	160%9fff	.	.
.	.	160%9eeen	.	.
8FJ	.	.	.	.
.	.	160%9eee-X	.	.
.	.	160%9ddd-	.	.
8BB-L	.	.	.	.
.	.	160%9ccc	.	.
.	.	160%9bb-	.	.
8F	.	.	.	.
.	.	160%9aan	.	.
.	.	160%9gg-	.	.
*	*	*X8va	*	*
!	!	!LO:TX:a:t=loco.	!	!
.	.	160%9ff	.	.
8e-	.	.	.	.
.	.	160%9gg-	.	.
.	.	160%9een	.	.
8An	.	.	.	.
.	.	160%9ff	.	.
.	.	160%9bn	.	.
8f	.	.	.	.
.	.	160%9cc	.	.
.	.	160%9ff	.	.
8FJ	.	.	.	.
.	.	160%9ee-X	.	.
.	.	160%9dd-J	.	.
*	*	*rscale:1	*	*
!!LO:LB:g=original
=74	=74	=74	=74	=74
8BB-L	.	2dd-	.	.
8F	.	.	.	.
8d-	.	.	.	.
8B-	.	.	.	.
8f	.	(4b-y	.	<
8FJ	.	.	.	.
8BB-L	.	4bb-)	.	.
8F	.	.	.	.
8d-	.	(4bb-'	.	.
8B-	.	.	.	.
8f	.	4bb-')	.	.
8FJ	.	.	.	[
=75	=75	=75	=75	=75
8BB-L	.	(2bb-	.	>
8F	.	.	.	.
8dn	.	.	.	.
8B-	.	.	.	]
8a-	.	4ddn)	.	.
8B-J	.	.	.	.
8E-L	.	(8ee-L	.	.
8G-	.	8ff	.	.
8e-	.	8ee-	.	.
8B-	.	8ddn	.	.
*	*	*Xtuplet	*	*
8g-	.	12ee-	.	.
.	.	12.gg-	.	>
8e-J	.	.	.	.
.	.	24ffJk)	.	]
*	*	*tuplet	*	*
=76	=76	=76	=76	=76
8CL	.	(2ff	.	>
8G-	.	.	.	.
8en	.	.	.	.
8c	.	.	.	]
8b-	.	4een)	.	.
8cJ	.	.	.	.
8FL	.	4fft	.	.
8c	.	.	.	.
.	.	16qee/LL	.	.
.	.	16qff/JJ	.	.
*clefG2	*	*	*	*
8an	.	8ggnL	.	<
8e-X	.	8aan	.	.
8cc	.	8bb-	.	.
8fJ	.	8cccJ	.	[
*clefF4	*	*	*	*
!!LO:LB:g=original
=77	=77	=77	=77	=77
*^	*	*	*	*
2.ryy	8BB-L	.	2ddd-	.	f
.	8F	.	.	.	.
.	8d-	.	.	.	.
.	8B-	.	.	.	.
!	!	!	!LO:TX:a:t=P:note-head-side tuplet number:problem	!	!
.	8E-	.	(12bb-L	.	.
.	.	.	12gg-	.	.
.	8g-J	.	.	.	.
.	.	.	12b-J)	.	.
8ryy	8FFL	.	(2dd-^<	.	.
2F	8F	.	.	.	.
.	8B-	.	.	.	.
.	8f	.	.	.	.
.	8e-	.	4cc)	.	.
8ryy	8AnJ	.	.	.	.
=78	=78	=78	=78	=78	=78
.	.	.	8qb-/	.	.
2.ryy	8BB-L	.	4.fff	.	<
.	8F	.	.	.	.
.	8d-	.	.	.	.
.	8B-	.	8ddd-	.	.
!	!	!	!LO:TX:a:t=P:note-head-side tuplet number:problem	!	!
.	8E-	.	(12bb-L	.	.
.	.	.	12gg-	.	.
.	8g-J	.	.	.	.
.	.	.	12b-J)	.	.
8ryy	8FFL	.	2dd-^<	.	.
2F	8F	.	.	.	.
.	8B-	.	.	.	.
.	8f	.	.	.	.
.	8e-	.	4cc	.	.
8ryy	8AnJ	.	.	.	.
*v	*v	*	*	*	*
=79	=79	=79	=79	=79
.	.	8qb-/	.	.
*	*	*8va	*	*
8GG-L	.	[4dddd-	.	.
8D-	.	.	.	.
*	*	*Xtuplet	*	*
8G-	.	12dddd-'L]	.	ff
.	.	12bbb-'	.	.
8B-	.	.	.	.
.	.	12ggg-'	.	.
*	*	*X8va	*	*
!	!	!LO:TX:a:t=loco.	!	!
8f-X	.	12ddd-	.	.
.	.	12bb-	.	.
8G-J	.	.	.	.
.	.	12b-J	.	.
*	*	*tuplet	*	*
8E-L	.	2cc-X^<	.	.
8G-	.	.	.	.
8c-X	.	.	.	.
8e-	.	.	.	.
8F-y	.	4an\	.	.
8e-J	.	.	.	>
!!LO:LB:g=original
=80	=80	=80	=80	=80
*ped	*	*	*	*
8BB-L	.	2.b-	.	p
8F	.	.	.	.
8d-	.	.	.	.
8B-	.	.	.	.
8f	.	.	.	.
*Xped	*	*	*	*
8FJ	.	.	.	.
*ped	*	*	*	*
8BB-L	.	(2cc-X^<	.	.
8G-	.	.	.	.
8e-	.	.	.	.
8An	.	.	.	.
8g-	.	4an\	.	.
*Xped	*	*	*	*
8G-J	.	.	.	.
=81	=81	=81	=81	=81
*ped	*	*	*	*
(8BB-L	.	2.b-)	.	.
!LO:TX:a:t=smorz&colon;	!	!	!	!
8F	.	.	.	.
8d-	.	.	.	.
8B-	.	.	.	.
8f	.	.	.	.
*Xped	*	*	*	*
8FJ)	.	.	.	.
*ped	*	*	*	*
(8BB-L	.	(16cc-X^<LL	.	.
.	.	16ee-	.	.
8G-	.	16gg-	.	.
.	.	16ccc-yJJ)	5	.
8e-	.	8eee-	4	.
8An	.	4r	.	.
8g-	.	.	.	.
*Xped	*	*	*	*
8G-J)	.	(<8an	.	.
=82	=82	=82	=82	=82
*ped	*	*	*	*
(8BB-L	.	2b-)	.	.
8F	.	.	.	.
8d-	.	.	.	.
8B-	.	.	.	.
8f	.	4r	.	.
*Xped	*	*	*	*
8FJ)	.	.	.	.
*	*	*8va	*	*
*ped	*	*	*	*
(>8BB-L	.	[2.ggg- [>2.eee-	.	ff>
8G-	.	.	.	.
8An	.	.	.	.
8c-X	.	.	.	]
8e-	.	.	.	.
8g-J)	.	.	.	.
*clefG2	*	*	*	*
!!LO:LB:g=original
=83	=83	=83	=83	=83
4an\	.	8ggg-L] 8eee-]	.	.
!	!	!LO:TX:b:t=accel&colon;	!	!
.	.	8eee-^ 8ccc-X	.	.
4r	.	8ccc-^ 8aan	.	.
.	.	8aa^ 8gg-	.	.
*	*	*X8va	*	*
!	!	!LO:TX:a:t=loco.	!	!
4r	.	8gg-^ 8ee-	.	>
.	.	8ee-^J 8cc-y	.	.
!!mixed beam:problem
2r	.	8cc-^>\L 8any\	.	.
.	.	8a^>\ 8g-\	.	.
.	.	8g-^>\ 8e-\	.	.
.	.	8e-^>\ 8c-yX\	.	.
*clefF4	*	*	*	*
!	!	!LO:TX:b:t=ritenuto.	!	!
4ryy	.	8c-X<^>/ 8An</	.	.
*Xped	*	*	*	*
.	.	8e-</J^> 8A</ 8G-</	.	.
=84	=84	=84	=84	=84
*	*	*^	*	*
*ped	*	*	*	*	*
2.BBB-\ 2.BB-\	.	2.F</ 2.B-</ (>/2.dn<	2.ryy	.	ppp
4BBB-\ 4BB-\	.	4F<'>/ 4B-<'>/ 4d<'>/	2ryy	.	.
4BBB-\ 4BB-\	.	4F<'>/ 4B-<'>/ 4d<'>/	.	.	.
4BBB-\ 4BB-\	.	4G-<'>/ 4B-<'>/ 4d<'>/)	8G-<\L	.	.
.	.	.	8F<\J	.	.
*	*	*v	*v	*	*
=85	=85	=85	=85	=85
1.BBB-::;<	.	1.dny<::; 1.B-<:: 1.F<:: 1.Dn<::	.	.
==	==	==	==	==
*-	*-	*-	*-	*-
!!title: @{OTL}; @{OPS} @{ONM} publisher: @{PPR}
!!!RDF**kern: > = above
!!!RDF**kern: < = below
!!!RDF**dynam: < = "cres."
!!!RDF**dynam: > = "dim:"
!!!ENC:[Zofia Trojan]
!!!END:[data edycji 2018-06-07]
!!!EED:[Mateusz Mrugas]
!!!EST: revision finished [data korekty 2018-06-10]
!!!EED: Jacek Iwaszko
!!!EST: revision finished 2018-07-17
!!!EED2: Jędrzej Mróz
!!!EST: revision finished 2019-07-31
!!!rism-genre: Nocturne
!!!rism-key: B-flat minor
!!!rism-opus: op.  9, no. 1
!!!rism-title: Nocturne in B-flat minor op.  9, no. 1
!!!rism-permalink: https://opac.rism.info/search?id=1001019586&View=rism
!!!rism-773a-OPR: 1001019585
!!!rism-parent-permalink: https://opac.rism.info/search?id=1001019585&View=rism
